src/assets/images/currencies/xrp.svg

<svg height="32" viewBox="0 0 32 32" width="32" xmlns="http://www.w3.org/2000/svg"><path d="m16 8c.5252871 0 1.0455281.05123924 1.5607221.15371773s1.0154415.25422711 1.5007444.45524591c.485302.20101881.946333.44744522 1.383094.7392793.436761.29183409.8408584.62346813 1.2122924.99490256.3714345.3714342.703068.7755315.994902 1.2122919.2918335.4367607.5382605.8977919.7392785 1.3830943.2010185.4853024.3527679.9855508.4552469 1.5007452.102478.5151939.1537197 1.0354347.1537197 1.5607231 0 .5252871-.0512417 1.0455281-.1537207 1.5607221s-.2542274 1.0154415-.4552459 1.5007444c-.201018.485302-.447445.946333-.7392785 1.383094-.291834.436761-.6234675.8408584-.994902 1.2122924-.371434.3714345-.7755314.703068-1.2122924.994902-.436761.2918335-.897792.5382605-1.383094.7392785-.4853029.2010185-.9855504.3527679-1.5007444.4552469-.515194.102478-1.035435.1537197-1.5607221.1537197-.5252884 0-1.0455292-.0512417-1.5607236-.1537207-.5151943-.102479-1.0154423-.2542274-1.5007447-.4552459-.4853024-.201018-.9463336-.447445-1.3830943-.7392785-.4367604-.291834-.8408577-.6234675-1.2122919-.994902-.37143443-.371434-.70306857-.7755314-.99490266-1.2122924-.29183398-.436761-.53826039-.897792-.7392792-1.383094-.2010188-.4853029-.35276742-.9855504-.45524591-1.5007444s-.15371773-1.035435-.15371773-1.5607221c0-.5252884.05123924-1.0455292.15371773-1.5607236.10247849-.5151943.25422711-1.0154423.45524591-1.5007447.20101881-.4853024.44744522-.9463336.7392793-1.3830943.29183409-.4367604.62346813-.8408577.99490256-1.2122919.3714342-.37143443.7755315-.70306857 1.2122919-.99490266.4367607-.29183398.8977919-.53826039 1.3830943-.7392792.4853024-.2010188.9855508-.35276742 1.5007452-.45524591.5151939-.10247849 1.0354347-.15371773 1.5607231-.15371773zm-.0000001 8.4765366c-.1827829 0-.3638427.0176635-.5431793.0529895-.1793365.035326-.3535689.0876485-.5226969.1569685-.1691279.0693195-.3299632.15433-.4825048.2550295-.1525421.1007005-.2939153.215192-.424119.3434755l-3.0275 2.9964999h1.4469995l2.3050007-2.2814999c.1663737-.164214.3576927-.290698.5739559-.379452.2162633-.0887525.441278-.133129.675045-.133129.2337675 0 .4587821.0443765.6750441.133129.2162625.088754.407581.215238.5739545.379452l2.3024999 2.2809999h1.4475004l-3.0275003-2.9960009c-.1302045-.1282835-.271577-.242775-.424119-.3434745-.1525425-.1006995-.3133775-.18571-.482505-.2550295-.1691275-.06932-.34336-.1216425-.5226965-.156969-.1793365-.0353255-.3603963-.052989-.5431792-.052989zm-3.5349999-4.4765368h-1.4475002l3.0100001 2.9785003c.1302037.128283.2715769.2427744.424119.3434743.1525416.1006999.3133769.18571.4825048.2550297.169128.0693202.3433604.1216431.5226969.1569691.1793366.0353255.3603964.0529885.5431791.0529885.1827841 0 .3638439-.017663.5431804-.0529885.1793365-.035326.353568-.0876489.5226955-.1569691.1691285-.0693197.3299635-.1543298.482506-.2550297.152542-.1006999.2939145-.2151913.424118-.3434743l3.0074994-2.9785003h-1.4449995l-2.2869989 2.2615003c-.166373.1642155-.3576915.2906995-.5739555.3794522-.2162635.0887532-.4412783.1331296-.6750454.1331296-.2337665-.0000005-.4587812-.0443768-.6750445-.1331296-.2162632-.0887532-.4075817-.2152371-.5739555-.3794527z" fill="#ff9580" fill-rule="evenodd"/></svg>

<svg xmlns="http://www.w3.org/2000/svg" width="32" height="32" viewBox="0 0 32 32">
  <path fill="#FF9580" fill-rule="evenodd" d="M16,8 C16.5252871,8 17.0455281,8.05123924 17.5607221,8.15371773 C18.0759161,8.25619622 18.5761636,8.40794484 19.0614665,8.60896364 C19.5467685,8.80998245 20.0077995,9.05640886 20.4445605,9.34824294 C20.8813215,9.64007703 21.2854189,9.97171107 21.6568529,10.3431455 C22.0282874,10.7145797 22.3599209,11.118677 22.6517549,11.5554374 C22.9435884,11.9921981 23.1900154,12.4532293 23.3910334,12.9385317 C23.5920519,13.4238341 23.7438013,13.9240825 23.8462803,14.4392769 C23.9487583,14.9544708 24,15.4747116 24,16 C24,16.5252871 23.9487583,17.0455281 23.8462793,17.5607221 C23.7438003,18.0759161 23.5920519,18.5761636 23.3910334,19.0614665 C23.1900154,19.5467685 22.9435884,20.0077995 22.6517549,20.4445605 C22.3599209,20.8813215 22.0282874,21.2854189 21.6568529,21.6568529 C21.2854189,22.0282874 20.8813215,22.3599209 20.4445605,22.6517549 C20.0077995,22.9435884 19.5467685,23.1900154 19.0614665,23.3910334 C18.5761636,23.5920519 18.0759161,23.7438013 17.5607221,23.8462803 C17.0455281,23.9487583 16.5252871,24 16,24 C15.4747116,24 14.9544708,23.9487583 14.4392764,23.8462793 C13.9240821,23.7438003 13.4238341,23.5920519 12.9385317,23.3910334 C12.4532293,23.1900154 11.9921981,22.9435884 11.5554374,22.6517549 C11.118677,22.3599209 10.7145797,22.0282874 10.3431455,21.6568529 C9.97171107,21.2854189 9.64007693,20.8813215 9.34824284,20.4445605 C9.05640886,20.0077995 8.80998245,19.5467685 8.60896364,19.0614665 C8.40794484,18.5761636 8.25619622,18.0759161 8.15371773,17.5607221 C8.05123924,17.0455281 8,16.5252871 8,16 C8,15.4747116 8.05123924,14.9544708 8.15371773,14.4392764 C8.25619622,13.9240821 8.40794484,13.4238341 8.60896364,12.9385317 C8.80998245,12.4532293 9.05640886,11.9921981 9.34824294,11.5554374 C9.64007703,11.118677 9.97171107,10.7145797 10.3431455,10.3431455 C10.7145797,9.97171107 11.118677,9.64007693 11.5554374,9.34824284 C11.9921981,9.05640886 12.4532293,8.80998245 12.9385317,8.60896364 C13.4238341,8.40794484 13.9240825,8.25619622 14.4392769,8.15371773 C14.9544708,8.05123924 15.4747116,8 16,8 Z M15.9999999,16.4765366 C15.817217,16.4765366 15.6361572,16.4942001 15.4568206,16.5295261 C15.2774841,16.5648521 15.1032517,16.6171746 14.9341237,16.6864946 C14.7649958,16.7558141 14.6041605,16.8408246 14.4516189,16.9415241 C14.2990768,17.0422246 14.1577036,17.1567161 14.0274999,17.2849996 L14.0274999,17.2849996 L10.9999999,20.2814995 L12.4469994,20.2814995 L14.7520001,17.9999996 C14.9183738,17.8357856 15.1096928,17.7093016 15.325956,17.6205476 C15.5422193,17.5317951 15.767234,17.4874186 16.001001,17.4874186 C16.2347685,17.4874186 16.4597831,17.5317951 16.6760451,17.6205476 C16.8923076,17.7093016 17.0836261,17.8357856 17.2499996,17.9999996 L17.2499996,17.9999996 L19.5524995,20.2809995 L20.9999999,20.2809995 L17.9724996,17.2849986 C17.8422951,17.1567151 17.7009226,17.0422236 17.5483806,16.9415241 C17.3958381,16.8408246 17.2350031,16.7558141 17.0658756,16.6864946 C16.8967481,16.6171746 16.7225156,16.5648521 16.5431791,16.5295256 C16.3638426,16.4942001 16.1827828,16.4765366 15.9999999,16.4765366 Z M12.465,11.9999998 L11.0174998,11.9999998 L14.0274999,14.9785001 C14.1577036,15.1067831 14.2990768,15.2212745 14.4516189,15.3219744 C14.6041605,15.4226743 14.7649958,15.5076844 14.9341237,15.5770041 C15.1032517,15.6463243 15.2774841,15.6986472 15.4568206,15.7339732 C15.6361572,15.7692987 15.817217,15.7869617 15.9999997,15.7869617 C16.1827838,15.7869617 16.3638436,15.7692987 16.5431801,15.7339732 C16.7225166,15.6986472 16.8967481,15.6463243 17.0658756,15.5770041 C17.2350041,15.5076844 17.3958391,15.4226743 17.5483816,15.3219744 C17.7009236,15.2212745 17.8422961,15.1067831 17.9724996,14.9785001 L17.9724996,14.9785001 L20.979999,11.9999998 L19.5349995,11.9999998 L17.2480006,14.2615001 C17.0816276,14.4257156 16.8903091,14.5521996 16.6740451,14.6409523 C16.4577816,14.7297055 16.2327668,14.7740819 15.9989997,14.7740819 C15.7652332,14.7740814 15.5402185,14.7297051 15.3239552,14.6409523 C15.107692,14.5521991 14.9163735,14.4257152 14.7499997,14.2614996 L14.7499997,14.2614996 L12.465,11.9999998 Z"/>
</svg>
